X:8099
T:John David's cat
R:Jig
P:AABBAA
O:Wales
M:6/8
K:D
f |\
a2f d2f | edB A2b | a2g fge | d3 z2 :|*
e |\
f2f f2d | gab a2g | fga agf | e3 fga :|**
